X:619
%%etbk:tnset id:363,pos:1,rep:3x,ant:
%%etbk:pldat 2016-06-09T18:20,2016-06-08T15:40,2016-06-07T15:39,2016-06-04T14:34,2016-06-01T16:04,2016-05-31T16:23,2016-05-29T11:17,2016-05-19T18:34,2016-05-18T16:08,2016-05-17T15:52,2016-05-16T14:27,2016-05-14T15:39,2016-05-13T15:32,2016-05-11T15:40,2016-05-09T18:42,2016-03-02T15:53,2016-03-01T17:51,2016-02-29T18:22,2016-02-27T13:20,2016-02-26T16:38,2016-02-04T19:17,2016-02-03T16:26,2016-02-02T17:14,2016-01-30T13:34,2016-01-26T16:35,2016-01-24T15:13,2016-01-20T16:36,2016-01-03T13:19,2016-01-01T16:07,2015-12-31T13:45,2015-11-20T15:57,2015-11-19T18:17,2015-11-18T15:48,2015-11-17T16:01,2015-11-15T14:05,2015-11-14T14:48,2015-11-13T17:57,2015-11-12T18:40,2015-11-11T16:54,2015-11-10T16:18,2015-11-09T18:12,2015-11-08T13:13,2015-11-04T17:02,2015-10-31T17:03,2015-10-25T14:34,2015-10-24T13:24,2015-10-17T14:12,2015-10-14T16:12,2014-12-20T13:48,2014-12-15T15:43,2014-12-10T15:32,2014-11-15T16:04,2014-11-13T18:16
T:Day Dream
Z: Piano Box Version by Martin Fleischmann
H: Created 2015-10-14 /  Last Modified 2015-11-08
C:Klaus Pfister
R: jig
L:1/8
Q:1/4=120
M:6/8
K:Dmaj
%%score (M1) (M2) 
V:M1  clef=treble  
V:M2  clef=treble   
%            End of header, start of tune body:
P:A
[V:M1]|: f3 d3 | B3 d3 | A2 d e2 d | z2 d e2 d | f3 d3 | B3 d3 | z6 |1 z2 f e2 d :|2 z6 :|
[V:M2]|:z6 | z6 | z6 | z6 | z6 | z6 | z6 |1z6 :|2 z6 :|
[V:M1]|: f3 d3 | B3 d3 | A2 d e2 d | z2 d e2 d | f3 d3 | B3 d3 |1 z2 b a2 f | a2 f e2 d :|2 z6 | z6 :|
[V:M2]|: A3 F3 | D3 F3 | E2 F G2 F | z2 F G2 F | A3 F3 | D3 F3 |1 z2 G F2 D | F2 A G2 F :|2 z6 | z6 :|
[V:M1]|:!turn!!4!f3 !turn!!2!d3 | Bde d!1!B!1!A | Bdd edf | z df edB | !turn!f3 !turn!d3 | Bde dBA | !5!ba!3!f !4!af!1!e | !2!def edB :|
[V:M2]|: A3 F3 | D3 F3 | E2 F G2 F | z2 F G2 F | A3 F3 | D3 F3 |1 z2 G F2 D | F2 A G2 F :|2 z6 | z6 :| 
[V:M1]|: !3!f!4!aa !5!baf| !4!a!3!f!1!d ede  | faa baf |afd e3  |faa baf  | afd ede  | !turn!!4!f3 !turn!!2!d3 | Bde d3 :|
[V:M2]|: !3!d!4!ff !5!gfd|  fdB cBc | dff gfd | fdB c3 | dff gfd|  fdB cBc | !turn!d3 !turn!B3 | BAG F3 :|
[V:M1]|: D3 A3 | z3 F3 | G3- G2 F | z6 | D3 A3 | z3 F3 | z6 | A2 F E2 F |
[V:M2]|: D3 F3 | z3 D3 | E3- E2 D | z6 | D3 F3 | z3 D3 | z6 | A2 F E2 F |
[V:M1] D3 A3 | z3 F3 | z3 G2 F | z2 A G2 F | z3 A3 | z3 F3 | z6 | z6 ||
[V:M2] D3 F3 | z3 D3 | z3 E2 D | z2 F E2 D | z3 F3 | z3 D3 | z6 | z6 
[V:M1]|:!turn!!4!f3 !turn!!2!d3 | Bde d!1!B!1!A | Bdd edf | z df edB | !turn!f3 !turn!d3 | Bde dBA | baf afe | def edB :|
[V:M2]|: A3 F3 | D3 F3 | E2 F G2 F | z2 F G2 F | A3 F3 | D3 F3 |1 z2 G F2 D | F2 A G2 F :|2 z6 | z6 :| 
[V:M1]|: faa baf| afd ede  | faa baf |afd e3  |faa baf  | afd ede  | !turn!!4!f3 !turn!!2!d3 | Bde d3 :|
[V:M2]|: dff gfd|  fdB cBc | dff gfd | fdB c3 | dff gfd|  fdB cBc | !turn!d3 !turn!B3 | BAG F3 :|
[V:M1]|: f3 d3 | B3 d3 | A2 d e2 d | z2 d e2 d | f3 d3 | B3 d3 |1 z2 b a2 f | a2 f e2 d :|2 z6 || z6 ::
[V:M2]|: A3 F3 | D3 F3 | E2 F G2 F | z2 F G2 F | A3 F3 | D3 F3 |1 z2 G F2 D | F2 A G2 F :|2 z6 || z6 :|


